X:187
T:Beautiful Waltz. Le4.187
Q:3/4=50
L:1/4
B:L.Leadley MS#4 c1850
Z:vmp.Mike Hicken 2016 www.village-music-project.org.uk
N: Tune 89 in "The Fiddler of Helperby"
N: * These notes are not clear in the original. This is my best guess.
N: ** These sets of three quavers are shown as triplets in the original which would not fit with the dotted crotchet.
M:3/4
K:A
c|!p!e3|ecd|e3|cea|gzf|ezd|"*"cd"*"B|Acd|
e3|ecd|e3|cea|gzf|edB|A3|Az:|
|:c|e f/e/d/e/|!p!bzd|c d/c/B/c/|(a/g/f/e/d/c/)|(c/B/^A/B/c/B/)|g2f|(f/e/^d/e/d/B/)|Az :|
|:!ff!c|czc|czc|e3|cAB|c2c|cfe|B3|BAB|
[Ac]z[Ac]|[Ac]z[Ac]|e3 |cag|g3/ "**"f/d/B/|f3/ "**"e/c/A/|e3/ "**"d/B/G/|Az !fermata!|]

